icons/p5js/p5js-original.svg

<?xml version="1.0" encoding="UTF-8"?>
<svg xmlns="http://www.w3.org/2000/svg" xmlns:xlink="http://www.w3.org/1999/xlink" width="128px" height="128px" viewBox="0 0 128 128" version="1.1">
<g id="surface1">
<path style=" stroke:none;fill-rule:nonzero;fill:rgb(92.941176%,13.333333%,36.470588%);fill-opacity:1;" d="M 37.800781 34.652344 L 37.058594 58.613281 C 37.789062 58.253906 38.542969 57.941406 39.316406 57.683594 C 40.164062 57.394531 41.027344 57.136719 41.917969 56.910156 C 42.8125 56.679688 43.722656 56.503906 44.640625 56.382812 C 45.511719 56.265625 46.390625 56.203125 47.269531 56.199219 C 48.46875 56.199219 49.644531 56.332031 50.800781 56.601562 C 51.929688 56.855469 52.992188 57.339844 53.929688 58.023438 C 54.859375 58.703125 55.609375 59.601562 56.1875 60.71875 C 56.765625 61.832031 57.054688 63.234375 57.054688 64.925781 C 57.054688 66.246094 56.839844 67.4375 56.40625 68.488281 C 55.972656 69.539062 55.382812 70.417969 54.640625 71.117188 C 53.894531 71.824219 53.007812 72.375 52.042969 72.730469 C 51.03125 73.105469 49.960938 73.292969 48.882812 73.289062 C 46.902344 73.289062 45.1875 72.761719 43.746094 71.707031 C 42.300781 70.65625 41.265625 69.261719 40.648438 67.527344 L 40.566406 67.558594 L 35.1875 72.597656 C 36.261719 74.363281 37.699219 75.875 39.410156 77.035156 C 41.925781 78.746094 45.023438 79.601562 48.695312 79.601562 C 50.886719 79.601562 52.949219 79.25 54.886719 78.550781 C 56.828125 77.847656 58.519531 76.835938 59.964844 75.515625 C 61.410156 74.195312 62.554688 72.574219 63.402344 70.65625 C 64.25 68.734375 64.671875 66.558594 64.671875 64.121094 C 64.671875 61.894531 64.289062 59.925781 63.527344 58.210938 C 62.761719 56.5 61.699219 55.054688 60.335938 53.875 C 58.976562 52.699219 57.375 51.800781 55.539062 51.183594 C 53.703125 50.5625 51.710938 50.253906 49.566406 50.253906 C 48.78125 50.253906 47.902344 50.296875 46.933594 50.378906 C 45.960938 50.460938 45.125 50.605469 44.425781 50.8125 L 44.859375 41.335938 L 62.753906 41.335938 L 62.753906 34.652344 Z M 89.933594 47.347656 L 89.933594 80.59375 C 89.933594 81.460938 89.894531 82.273438 89.8125 83.039062 C 89.726562 83.800781 89.542969 84.472656 89.253906 85.054688 C 88.976562 85.613281 88.546875 86.085938 88.015625 86.414062 C 87.476562 86.746094 86.773438 86.910156 85.910156 86.910156 C 85.222656 86.902344 84.535156 86.820312 83.867188 86.660156 L 83.246094 92.976562 C 83.621094 93.058594 84.113281 93.144531 84.730469 93.226562 C 85.351562 93.308594 85.972656 93.347656 86.589844 93.347656 C 88.820312 93.347656 90.625 93 92.007812 92.296875 C 93.390625 91.59375 94.484375 90.65625 95.292969 89.480469 C 96.097656 88.300781 96.640625 86.921875 96.929688 85.332031 C 97.21875 83.742188 97.367188 82.058594 97.367188 80.285156 L 97.367188 47.347656 Z M 18.066406 47.902344 C 16.703125 47.902344 15.476562 48.054688 14.382812 48.363281 C 13.363281 48.648438 12.375 49.042969 11.441406 49.542969 C 10.574219 50.019531 9.839844 50.550781 9.242188 51.152344 C 8.695312 51.6875 8.210938 52.277344 7.789062 52.917969 L 7.601562 52.917969 L 7.601562 48.769531 L 0.480469 48.769531 L 0.480469 93.347656 L 7.914062 93.347656 L 7.914062 74.523438 L 8.035156 74.523438 C 8.984375 76.011719 10.335938 77.1875 12.09375 78.054688 C 13.847656 78.921875 15.773438 79.355469 17.878906 79.355469 C 20.148438 79.355469 22.183594 78.929688 23.980469 78.085938 C 25.777344 77.242188 27.304688 76.105469 28.5625 74.679688 C 29.820312 73.257812 30.792969 71.585938 31.472656 69.664062 C 32.152344 67.746094 32.496094 65.691406 32.496094 63.503906 C 32.496094 61.316406 32.144531 59.273438 31.441406 57.375 C 30.738281 55.476562 29.75 53.824219 28.46875 52.421875 C 27.183594 51.015625 25.625 49.886719 23.886719 49.109375 C 22.113281 48.304688 20.171875 47.902344 18.066406 47.902344 Z M 116.375 47.902344 C 114.886719 47.902344 113.441406 48.085938 112.039062 48.457031 C 110.632812 48.828125 109.375 49.398438 108.261719 50.160156 C 107.148438 50.921875 106.226562 51.929688 105.566406 53.101562 C 104.886719 54.300781 104.546875 55.722656 104.546875 57.375 C 104.546875 58.777344 104.792969 59.953125 105.289062 60.902344 C 105.765625 61.832031 106.441406 62.648438 107.269531 63.289062 C 108.125 63.945312 109.078125 64.464844 110.089844 64.835938 C 111.148438 65.230469 112.234375 65.550781 113.339844 65.796875 C 115.609375 66.332031 117.3125 66.871094 118.449219 67.40625 C 119.582031 67.941406 120.148438 68.828125 120.148438 70.070312 C 120.148438 70.730469 120.003906 71.285156 119.71875 71.742188 C 119.429688 72.191406 119.039062 72.5625 118.570312 72.824219 C 118.085938 73.097656 117.566406 73.292969 117.023438 73.410156 C 116.484375 73.535156 115.933594 73.597656 115.382812 73.597656 C 113.773438 73.597656 112.308594 73.246094 110.984375 72.546875 C 109.664062 71.84375 108.59375 70.957031 107.765625 69.882812 L 102.875 74.464844 C 104.320312 76.035156 106.136719 77.242188 108.324219 78.085938 C 110.472656 78.925781 112.761719 79.355469 115.070312 79.355469 C 116.683594 79.355469 118.242188 79.179688 119.746094 78.828125 C 121.253906 78.480469 122.574219 77.910156 123.710938 77.128906 C 124.851562 76.339844 125.785156 75.289062 126.4375 74.0625 C 127.117188 72.804688 127.457031 71.265625 127.457031 69.449219 C 127.457031 68.003906 127.167969 66.777344 126.589844 65.765625 C 126.023438 64.769531 125.253906 63.902344 124.328125 63.226562 C 123.382812 62.535156 122.339844 61.980469 121.234375 61.585938 C 120.132812 61.183594 119.003906 60.851562 117.859375 60.59375 C 115.753906 60.097656 114.152344 59.613281 113.058594 59.140625 C 111.964844 58.664062 111.421875 57.847656 111.421875 56.691406 C 111.421875 55.539062 111.914062 54.710938 112.90625 54.21875 C 113.898438 53.722656 114.988281 53.472656 116.1875 53.472656 C 117.550781 53.472656 118.808594 53.792969 119.964844 54.433594 C 121.121094 55.074219 122.027344 55.824219 122.691406 56.691406 L 127.519531 52.421875 C 126.320312 50.894531 124.699219 49.757812 122.65625 49.015625 C 120.644531 48.277344 118.515625 47.902344 116.375 47.902344 Z M 16.394531 53.96875 C 17.839844 53.96875 19.097656 54.246094 20.171875 54.804688 C 21.210938 55.335938 22.117188 56.085938 22.835938 57.003906 C 23.539062 57.921875 24.074219 58.960938 24.414062 60.066406 C 24.761719 61.203125 24.9375 62.347656 24.9375 63.503906 C 24.9375 64.660156 24.761719 65.816406 24.414062 66.972656 C 24.082031 68.09375 23.546875 69.140625 22.835938 70.070312 C 22.132812 70.976562 21.242188 71.71875 20.171875 72.296875 C 19.097656 72.875 17.839844 73.164062 16.394531 73.164062 C 15.03125 73.164062 13.8125 72.886719 12.742188 72.328125 C 11.6875 71.785156 10.75 71.039062 9.988281 70.128906 C 9.222656 69.226562 8.636719 68.183594 8.25 67.066406 C 7.863281 65.960938 7.667969 64.796875 7.664062 63.628906 C 7.667969 62.449219 7.867188 61.277344 8.25 60.160156 C 8.628906 59.027344 9.21875 57.980469 9.984375 57.066406 C 10.753906 56.152344 11.691406 55.398438 12.742188 54.835938 C 13.8125 54.257812 15.03125 53.96875 16.394531 53.96875 Z M 75.828125 67.589844 L 75.828125 72.203125 L 71.367188 70.761719 L 70.5 73.441406 L 74.941406 75.042969 L 72.203125 78.789062 L 74.441406 80.496094 L 77.246094 76.785156 L 80.128906 80.59375 L 82.4375 78.921875 L 79.699219 75.042969 L 84.105469 73.539062 L 83.238281 70.867188 L 78.8125 72.203125 L 78.8125 67.589844 Z M 75.828125 67.589844 "/>
</g>
</svg>

<svg xmlns="http://www.w3.org/2000/svg" viewBox="0 0 128 128"><path fill="#ed225d" d="m37.8 34.652-.741 23.961c.73-.36 1.484-.672 2.257-.93a34.74 34.74 0 0 1 2.602-.773c.895-.23 1.805-.406 2.723-.527.87-.117 1.75-.18 2.629-.184 1.199 0 2.375.133 3.53.403a8.459 8.459 0 0 1 3.13 1.421c.93.68 1.68 1.579 2.258 2.696.578 1.113.867 2.515.867 4.207 0 1.32-.215 2.511-.649 3.562-.433 1.051-1.023 1.93-1.765 2.63a7.605 7.605 0 0 1-2.598 1.612 8.996 8.996 0 0 1-3.16.56c-1.98 0-3.696-.528-5.137-1.583-1.445-1.05-2.48-2.445-3.098-4.18l-.082.032-5.379 5.039a14.4 14.4 0 0 0 4.223 4.437c2.516 1.711 5.613 2.567 9.285 2.567 2.192 0 4.254-.352 6.192-1.051 1.941-.703 3.633-1.715 5.078-3.035 1.445-1.32 2.59-2.942 3.437-4.86.848-1.922 1.27-4.097 1.27-6.535 0-2.226-.383-4.195-1.145-5.91-.765-1.711-1.828-3.156-3.191-4.336-1.36-1.176-2.961-2.074-4.797-2.691-1.836-.621-3.828-.93-5.973-.93-.785 0-1.664.043-2.632.125-.973.082-1.809.226-2.508.434l.433-9.477h17.895v-6.684Zm52.134 12.696v33.246c0 .867-.04 1.68-.121 2.445-.086.762-.27 1.434-.56 2.016a3.351 3.351 0 0 1-1.237 1.36c-.54.331-1.243.495-2.106.495a9.223 9.223 0 0 1-2.043-.25l-.62 6.317c.374.082.866.168 1.483.25.622.082 1.243.12 1.86.12 2.23 0 4.035-.347 5.418-1.05 1.383-.703 2.476-1.64 3.285-2.817.805-1.18 1.348-2.558 1.637-4.148a28.2 28.2 0 0 0 .437-5.047V47.348Zm-71.868.554c-1.363 0-2.59.153-3.683.461-1.02.285-2.008.68-2.942 1.18-.867.477-1.601 1.008-2.199 1.61a10.689 10.689 0 0 0-1.453 1.765h-.187V48.77H.48v44.578h7.434V74.523h.121c.95 1.489 2.3 2.665 4.059 3.532 1.754.867 3.68 1.3 5.785 1.3 2.27 0 4.305-.425 6.101-1.27 1.797-.843 3.325-1.98 4.582-3.405 1.258-1.422 2.231-3.094 2.91-5.016.68-1.918 1.024-3.973 1.024-6.16 0-2.188-.351-4.23-1.055-6.129-.703-1.898-1.691-3.55-2.972-4.953a13.892 13.892 0 0 0-4.582-3.313c-1.774-.804-3.715-1.207-5.82-1.207Zm98.309 0a16.88 16.88 0 0 0-4.336.555 12.095 12.095 0 0 0-3.777 1.703 8.795 8.795 0 0 0-2.696 2.942c-.68 1.199-1.02 2.62-1.02 4.273 0 1.402.247 2.578.743 3.527a7.13 7.13 0 0 0 1.98 2.387 10.668 10.668 0 0 0 2.82 1.547 24.63 24.63 0 0 0 3.25.96c2.27.536 3.974 1.075 5.11 1.61 1.133.535 1.7 1.422 1.7 2.664 0 .66-.145 1.215-.43 1.672-.29.45-.68.82-1.149 1.082a5.497 5.497 0 0 1-1.547.586 7.265 7.265 0 0 1-1.64.188c-1.61 0-3.074-.352-4.399-1.051-1.32-.703-2.39-1.59-3.218-2.664l-4.891 4.582c1.445 1.57 3.262 2.777 5.45 3.62 2.148.84 4.437 1.27 6.745 1.27 1.614 0 3.172-.175 4.676-.527 1.508-.348 2.828-.918 3.965-1.7a8.683 8.683 0 0 0 2.727-3.066c.68-1.257 1.019-2.796 1.019-4.613 0-1.445-.289-2.672-.867-3.683a8.096 8.096 0 0 0-2.262-2.54 12.182 12.182 0 0 0-3.094-1.64 27.386 27.386 0 0 0-3.375-.992c-2.105-.496-3.707-.98-4.8-1.453-1.094-.477-1.637-1.293-1.637-2.45 0-1.152.492-1.98 1.484-2.472.992-.496 2.082-.746 3.281-.746 1.364 0 2.622.32 3.778.96 1.156.641 2.062 1.391 2.726 2.258l4.829-4.27c-1.2-1.526-2.82-2.663-4.864-3.405a18.24 18.24 0 0 0-6.281-1.114Zm-99.98 6.067c1.445 0 2.703.277 3.777.836a8.016 8.016 0 0 1 2.664 2.199 9.755 9.755 0 0 1 1.578 3.062 11.69 11.69 0 0 1 .523 3.438 11.99 11.99 0 0 1-.523 3.469 9.57 9.57 0 0 1-1.578 3.097c-.703.907-1.594 1.649-2.664 2.227-1.074.578-2.332.867-3.777.867-1.364 0-2.582-.277-3.653-.836a8.902 8.902 0 0 1-2.754-2.2 9.571 9.571 0 0 1-1.738-3.062 10.523 10.523 0 0 1-.586-3.437 10.81 10.81 0 0 1 .586-3.469 9.399 9.399 0 0 1 4.492-5.324c1.07-.578 2.29-.867 3.653-.867Zm59.433 13.62v4.614l-4.46-1.441-.868 2.68 4.441 1.601-2.738 3.746 2.238 1.707 2.805-3.71 2.883 3.808 2.308-1.672-2.738-3.879 4.406-1.504-.867-2.672-4.425 1.336V67.59Zm0 0"/></svg>
